svgs/1F974.svg

<svg xmlns="http://www.w3.org/2000/svg" xmlns:xlink="http://www.w3.org/1999/xlink" preserveAspectRatio="none" viewBox="0 0 72 72"><defs><path id="a" fill="#FCC21B" d="M127.65 93.35q0-27-8.5-47.05-15.6-36.65-55.3-36.65Q24.2 9.65 8.6 46.3.1 66.35.1 93.35q0 10.4 18.7 17.7 18.65 7.35 45.05 7.35 26.45 0 45.1-7.35 18.7-7.3 18.7-17.7z"/><path id="c" fill="#2F2F2F" d="M19 31.7q.04.094.05.2.25 2.25 1.75 3.75 1.5 1.45 3.4 1.25 1.85-.15 3.05-1.9 1.15-1.7.9-3.95-.2-2.25-1.7-3.75-.82-.82-1.75-1.2-2.668 1.803-5.7 5.6z"/><path id="d" fill="#2F2F2F" d="M52.95 28.9q-.12-1.049-.5-1.95-3.938.756-7.9-.85-.93 1.632-.75 3.65.25 2.25 1.7 3.7 1.5 1.5 3.4 1.3 1.85-.2 3.05-1.9 1.2-1.7 1-3.95z"/><path id="b" fill="none" stroke="#2F2F2F" stroke-linecap="round" stroke-linejoin="round" stroke-width="3" d="M46.45 23.45q2.15 1.35 7.5 1.8M16.2 27.1q2.284-3.468 5.7-5.25"/><path id="e" fill="none" stroke="#2F2F2F" stroke-linecap="round" stroke-linejoin="round" stroke-width="3" d="M18.1 45.3q0 2.2 3.05 3.85 3 1.6 5.05-.85l1.7-1.9q1.85-1.85 4.05-.5l3.2 2.75q2.9 2.05 4.95-.4l2.5-3.15q1.7-1.85 3.9-.15l2.6 3.75q2.45 1.9 5 .1 1.85-1.4 3-4.3"/></defs><use transform="scale(.5625)" xlink:href="#a"/><use xlink:href="#b"/><use xlink:href="#c"/><use transform="rotate(5 32.817 28.972)" xlink:href="#d"/><g><use xlink:href="#e"/></g></svg>

<svg xmlns="http://www.w3.org/2000/svg" version="1.1" xmlns:xlink="http://www.w3.org/1999/xlink" preserveAspectRatio="none" x="0px" y="0px" width="72px" height="72px" viewBox="0 0 72 72">
<defs>
<g id="Layer2_0_FILL">
<path fill="#FCC21B" stroke="none" d="
M 127.65 93.35
Q 127.65 66.35 119.15 46.3 103.55 9.65 63.85 9.65 24.2 9.65 8.6 46.3 0.1 66.35 0.1 93.35 0.1 103.75 18.8 111.05 37.45 118.4 63.85 118.4 90.3 118.4 108.95 111.05 127.65 103.75 127.65 93.35 Z"/>
</g>

<g id="Layer1_1_FILL">
<path fill="#2F2F2F" stroke="none" d="
M 19 31.7
Q 19.040234375 31.7935546875 19.05 31.9 19.3 34.15 20.8 35.65 22.3 37.1 24.2 36.9 26.05 36.75 27.25 35 28.4 33.3 28.15 31.05 27.95 28.8 26.45 27.3 25.630078125 26.480078125 24.7 26.1 22.0322265625 27.9029296875 19 31.7 Z"/>
</g>

<g id="Layer1_2_FILL">
<path fill="#2F2F2F" stroke="none" d="
M 52.95 28.9
Q 52.830859375 27.8513671875 52.45 26.95 48.5125 27.7056640625 44.55 26.1 43.620703125 27.73203125 43.8 29.75 44.05 32 45.5 33.45 47 34.95 48.9 34.75 50.75 34.55 51.95 32.85 53.15 31.15 52.95 28.9 Z"/>
</g>

<path id="Layer1_0_1_STROKES" stroke="#2F2F2F" stroke-width="3" stroke-linejoin="round" stroke-linecap="round" fill="none" d="
M 46.45 23.45
Q 48.6 24.8 53.95 25.25
M 16.2 27.1
Q 18.484375 23.632421875 21.9 21.85"/>

<path id="Layer0_0_1_STROKES" stroke="#2F2F2F" stroke-width="3" stroke-linejoin="round" stroke-linecap="round" fill="none" d="
M 18.1 45.3
Q 18.1 47.5 21.15 49.15 24.15 50.75 26.2 48.3
L 27.9 46.4
Q 29.75 44.55 31.95 45.9
L 35.15 48.65
Q 38.05 50.7 40.1 48.25
L 42.6 45.1
Q 44.3 43.25 46.5 44.95
L 49.1 48.7
Q 51.55 50.6 54.1 48.8 55.95 47.4 57.1 44.5"/>
</defs>

<g id="Layer_1">
<g transform="matrix( 0.5625, 0, 0, 0.5625, 0,0) ">
<use xlink:href="#Layer2_0_FILL"/>
</g>
</g>

<g id="Camada_2">
<g transform="matrix( 1, 0, 0, 1, 0,0) ">
<use xlink:href="#Layer1_0_1_STROKES"/>
</g>

<g transform="matrix( 1, 0, 0, 1, 0,0) ">
<use xlink:href="#Layer1_1_FILL"/>
</g>

<g transform="matrix( 0.9962005615234375, 0.087158203125, -0.087158203125, 0.9962005615234375, 2.65,-2.75) ">
<use xlink:href="#Layer1_2_FILL"/>
</g>
</g>

<g id="Camada_1">
<g transform="matrix( 1, 0, 0, 1, 0,0) ">
<use xlink:href="#Layer0_0_1_STROKES"/>
</g>
</g>
</svg>
